X:1
T:The recruiting sergeant
R:March
D:The Pogues: If I Should Fall from Grace with God
M:2/4
L:1/8
K:C
|: DE G2 |A2 AB |AG EC |c2 BA |DE G2 |AB A2 |G3 E |C>D EG ::
A2 d2 | d3 e |dc AB |c2 AG |A2 d2 |de d2 |c3 B |1 G>A Bc :|2 G4 | cB AG |